app/dist/common/images/rocky-mountain-chocolate-factory.svg

<svg height="18" viewBox="0 0 18 18" width="18" xmlns="http://www.w3.org/2000/svg"><path d="m0 0h18v18h-18z" fill="#f0f3fa"/><path d="m15.69 10.64h-13.39v-2.74h1.53c.71 0 1.16-.74 1.18-1.02v-.28a6.38 6.38 0 0 1 3.94-1.24c2.1 0 3.53.88 4.03 1.26v.26c0 .65.78 1.05 1.26 1.05h1.44v2.71z" fill="#fefefe"/><path d="m2 12h14v-4.38h-1.5c-.5 0-1.12-.28-1.13-1.01v-.3a7.63 7.63 0 0 0 -4.41-1.31c-2.2 0-3.84.87-4.34 1.31v.3c-.01.32-.12 1.01-.86 1.01h-1.76zm.3-.38h13.4v-3.62h-1.43c-.48 0-1.18-.47-1.19-1.1v-.27a7.15 7.15 0 0 0 -4.12-1.26c-2.1 0-3.57.86-4.04 1.24v.26c-.02.28-.38 1.13-1.1 1.13h-1.52v3.63z" fill="#5f3516" fill-rule="evenodd"/><path d="m11.23 8h-4.51l1.14-.65.35.22.81-.5.76.5.35-.22z" fill="#af6e4f"/><path d="m3 9h12v2h-12z" fill="#af6e4f" opacity=".7"/><path d="m9 6.91c-1.44 0-3.3.77-4 1.09v-1.11c.45-.3 1.88-.89 3.93-.89s3.57.6 4.07.89v1.11c-.76-.32-2.56-1.09-4-1.09z" fill="#562c85" opacity=".7"/></svg>

<!-- by TradingView --><svg width="18" height="18" viewBox="0 0 18 18" xmlns="http://www.w3.org/2000/svg"><path fill="#F0F3FA" d="M0 0h18v18H0z"/><path d="M15.69 10.64H2.3V7.9h1.53c.71 0 1.16-.74 1.18-1.02V6.6a6.38 6.38 0 0 1 3.94-1.24c2.1 0 3.53.88 4.03 1.26v.26c0 .65.78 1.05 1.26 1.05h1.44v2.71Z" fill="#FEFEFE"/><path fill-rule="evenodd" d="M2 12h14V7.62h-1.5c-.5 0-1.12-.28-1.13-1.01v-.3A7.63 7.63 0 0 0 8.96 5c-2.2 0-3.84.87-4.34 1.31v.3c-.01.32-.12 1.01-.86 1.01H2V12Zm.3-.38h13.4V8h-1.43c-.48 0-1.18-.47-1.19-1.1v-.27a7.15 7.15 0 0 0-4.12-1.26c-2.1 0-3.57.86-4.04 1.24v.26C4.9 7.15 4.54 8 3.82 8H2.3v3.63Z" fill="#5F3516"/><path d="M11.23 8H6.72l1.14-.65.35.22.81-.5.76.5.35-.22 1.1.65Z" fill="#AF6E4F"/><path opacity=".7" fill="#AF6E4F" d="M3 9h12v2H3z"/><path opacity=".7" d="M9 6.91c-1.44 0-3.3.77-4 1.09V6.89C5.45 6.59 6.88 6 8.93 6c2.05 0 3.57.6 4.07.89V8c-.76-.32-2.56-1.09-4-1.09Z" fill="#562C85"/></svg>
